X: 32530
T: Planxty Dermot Grogan
R: jig
M: 6/8
K: Dmajor
|:A,DE|F3 EED|B3 ABd|e3 fde|fee dBA|
B3 AAB|AFD FED|E2 F2 D2|E3 A,B,D|
E3 FDE|FEE DFA|BA A/B/ dea|f2 ed BA|
B3 AAB|AFD FED|EF D2 D2|D3:|
|:ABd|e3 fde|fee dfa|baa fab|afd fed|
e3 fde|fee dBA|BA A/B/ dAF|D3 A,B,D|
E3 FDE|FEE DFA|BA A/B/ dea|f2 ed BA|
B3 AAB|AFD FED|EF D2 D2|D3:|

